austria/municipalities/20726.svg

<svg xmlns="http://www.w3.org/2000/svg" width="826" height="825" style="shape-rendering:geometricPrecision;text-rendering:geometricPrecision;image-rendering:optimizeQuality;fill-rule:evenodd;clip-rule:evenodd"><path style="opacity:1" fill="#000001" d="M-.5-.5h826v24l-33.5 461C778.188 595.347 727.355 684.513 639.5 752c-55.194 39.568-116.528 63.735-184 72.5h-84c-119.702-16.641-212.869-74.974-279.5-175-31.434-50.631-50.768-105.631-58-165A345034.653 345034.653 0 0 1-.5 10.5v-11z"/><path style="opacity:1" fill="#028fd7" d="M26.5 23.5h773a40662.261 40662.261 0 0 1-33.5 468c-7.514 49.832-24.014 96.165-49.5 139a4417.453 4417.453 0 0 1-88-70l-2-220a7529.325 7529.325 0 0 1-85.5-59 12190.204 12190.204 0 0 0-6-232 3.646 3.646 0 0 0-1.5-1l-210 114a55.582 55.582 0 0 0-1.5 9 59790.658 59790.658 0 0 1-12 314 4725.02 4725.02 0 0 0-80 46 10950.373 10950.373 0 0 1-53.5 178c-42.748-37.571-74.248-82.904-94.5-136a586.87 586.87 0 0 1-16-52 471.829 471.829 0 0 1-8-56 163717.765 163717.765 0 0 0-31.5-442z"/><path style="opacity:1" fill="#fefefe" d="M513.5 82.5c1.807 7.604 2.64 15.604 2.5 24a50135.512 50135.512 0 0 0 5 188 5496.45 5496.45 0 0 1 82 57c.833 131.668.667 263.335-.5 395-58.821 36.466-123.155 54.799-193 55 .167-124 0-248-.5-372a4278.288 4278.288 0 0 0-76 44 11929.44 11929.44 0 0 1 12-298 39692.909 39692.909 0 0 0 168.5-93z"/><path style="opacity:1" fill="#fefefe" d="M386.5 465.5a28063.812 28063.812 0 0 1 1 335c-65.195-5.114-124.529-26.281-178-63.5a87.722 87.722 0 0 1-14-12 55997.353 55997.353 0 0 1 53-180.5c46.063-26.36 92.063-52.694 138-79z"/><path style="opacity:1" fill="#f4f4f4" d="M676.5 683.5a2081.064 2081.064 0 0 1-33.5-41 1526.734 1526.734 0 0 0-15.5-51 4.934 4.934 0 0 1 .5-3 10570.164 10570.164 0 0 1 76.5 61 262.075 262.075 0 0 1-28 34z"/><path style="opacity:1" fill="#fefefe" d="M627.5 591.5a1526.734 1526.734 0 0 1 15.5 51 2081.064 2081.064 0 0 0 33.5 41 344.653 344.653 0 0 1-48.5 45c-.5-45.665-.667-91.332-.5-137z"/></svg>

<?xml version="1.0" encoding="UTF-8"?>
<!DOCTYPE svg PUBLIC "-//W3C//DTD SVG 1.1//EN" "http://www.w3.org/Graphics/SVG/1.1/DTD/svg11.dtd">
<svg xmlns="http://www.w3.org/2000/svg" version="1.1" width="826px" height="825px" style="shape-rendering:geometricPrecision; text-rendering:geometricPrecision; image-rendering:optimizeQuality; fill-rule:evenodd; clip-rule:evenodd" xmlns:xlink="http://www.w3.org/1999/xlink">
<g><path style="opacity:1" fill="#000001" d="M -0.5,-0.5 C 274.833,-0.5 550.167,-0.5 825.5,-0.5C 825.5,7.5 825.5,15.5 825.5,23.5C 814.344,177.015 803.177,330.682 792,484.5C 778.188,595.347 727.355,684.513 639.5,752C 584.306,791.568 522.972,815.735 455.5,824.5C 427.5,824.5 399.5,824.5 371.5,824.5C 251.798,807.859 158.631,749.526 92,649.5C 60.5656,598.869 41.2322,543.869 34,484.5C 22.3802,326.357 10.8802,168.357 -0.5,10.5C -0.5,6.83333 -0.5,3.16667 -0.5,-0.5 Z"/></g>
<g><path style="opacity:1" fill="#028fd7" d="M 26.5,23.5 C 284.167,23.5 541.833,23.5 799.5,23.5C 789.233,179.565 778.067,335.565 766,491.5C 758.486,541.332 741.986,587.665 716.5,630.5C 686.879,607.547 657.545,584.214 628.5,560.5C 627.833,487.167 627.167,413.833 626.5,340.5C 597.862,321.028 569.362,301.362 541,281.5C 539.736,204.142 537.736,126.808 535,49.5C 534.586,49.0426 534.086,48.7093 533.5,48.5C 463.5,86.5 393.5,124.5 323.5,162.5C 322.756,165.443 322.256,168.443 322,171.5C 318.275,276.178 314.275,380.845 310,485.5C 283.17,500.581 256.503,515.914 230,531.5C 212.664,591.005 194.831,650.338 176.5,709.5C 133.752,671.929 102.252,626.596 82,573.5C 75.8779,556.463 70.5446,539.13 66,521.5C 62.2133,502.993 59.5467,484.327 58,465.5C 47.6973,318.123 37.1973,170.79 26.5,23.5 Z"/></g>
<g><path style="opacity:1" fill="#fefefe" d="M 513.5,82.5 C 515.307,90.104 516.14,98.104 516,106.5C 517.549,169.171 519.216,231.838 521,294.5C 548.508,313.253 575.841,332.253 603,351.5C 603.833,483.168 603.667,614.835 602.5,746.5C 543.679,782.966 479.345,801.299 409.5,801.5C 409.667,677.5 409.5,553.5 409,429.5C 383.503,443.914 358.17,458.581 333,473.5C 335.758,374.123 339.758,274.79 345,175.5C 401.309,144.599 457.476,113.599 513.5,82.5 Z"/></g>
<g><path style="opacity:1" fill="#fefefe" d="M 386.5,465.5 C 387.499,576.999 387.833,688.665 387.5,800.5C 322.305,795.386 262.971,774.219 209.5,737C 204.362,733.449 199.695,729.449 195.5,725C 213.067,664.798 230.734,604.632 248.5,544.5C 294.563,518.14 340.563,491.806 386.5,465.5 Z"/></g>
<g><path style="opacity:1" fill="#f4f4f4" d="M 676.5,683.5 C 665.198,670.022 654.031,656.356 643,642.5C 638.096,625.297 632.929,608.297 627.5,591.5C 627.351,590.448 627.517,589.448 628,588.5C 653.591,608.713 679.091,629.046 704.5,649.5C 696.103,661.64 686.77,672.974 676.5,683.5 Z"/></g>
<g><path style="opacity:1" fill="#fefefe" d="M 627.5,591.5 C 632.929,608.297 638.096,625.297 643,642.5C 654.031,656.356 665.198,670.022 676.5,683.5C 661.785,700.047 645.619,715.047 628,728.5C 627.5,682.835 627.333,637.168 627.5,591.5 Z"/></g>
</svg>
